assets/home/epic.svg

<svg width="33" height="36" viewBox="0 0 33 36" fill="none" xmlns="http://www.w3.org/2000/svg">
<g clip-path="url(#clip0_46_136)">
<path d="M28.8792 0H3.54709C1.48101 0 0.76236 0.71864 0.76236 2.78473V27.5778C0.76236 27.8473 0.76236 28.027 0.76236 28.2066C0.852189 28.6558 0.852189 29.1049 1.21151 29.5541C1.21151 29.644 1.66066 29.9134 1.66066 29.9134C1.93015 30.0032 2.01999 30.0931 2.28947 30.1829L14.7758 35.393C15.4046 35.6626 15.6741 35.8422 16.1233 35.7523C16.5724 35.7523 16.842 35.6626 17.4708 35.393L29.9571 30.1829C30.2266 30.0931 30.4063 30.0032 30.5859 29.9134L31.0351 29.5541C31.4842 29.0152 31.4842 28.6558 31.4842 28.2066C31.4842 28.027 31.4842 27.7574 31.4842 27.5778V2.78473C31.7538 0.71864 30.9453 0 28.8792 0ZM17.83 4.761H19.8962V18.505H17.83V4.761ZM17.1115 23.266C17.2012 23.1762 17.2012 23.0863 17.2911 22.9966C17.3809 22.8168 17.5605 22.6372 17.6504 22.4575C17.7403 22.3676 17.7403 22.2779 17.83 22.188C17.83 22.0982 17.9199 22.0982 17.9199 22.0084C17.9199 22.0084 17.9199 22.0084 18.0097 22.0084H18.0996C18.3691 22.0084 18.5487 22.0084 18.8182 22.0084C18.908 22.0084 18.908 22.0084 18.9979 22.0084H19.0876V22.0982V22.188C19.0876 22.2779 19.0876 22.2779 19.0876 22.3676C19.0876 22.6372 19.0876 22.8168 19.0876 23.0863C19.0876 23.3558 19.0876 23.5355 19.0876 23.805C19.0876 24.0745 19.0876 24.2542 19.0876 24.5236C19.0876 24.7931 19.0876 24.9727 19.0876 25.2422C19.0876 25.5118 19.0876 25.6914 19.0876 25.9609C19.0876 26.0507 19.0876 26.0507 19.0876 26.1406C19.0876 26.1406 19.0876 26.1406 18.9979 26.1406C18.7284 26.1406 18.5487 26.1406 18.2792 26.1406C18.1894 26.1406 18.1894 26.1406 18.0996 26.1406H18.0097H17.9199V25.9609C17.9199 25.871 17.9199 25.871 17.9199 25.7813C17.9199 25.5118 17.9199 25.3321 17.9199 25.0626C17.9199 24.7931 17.9199 24.6134 17.9199 24.3439C17.9199 24.0745 17.9199 23.8948 17.9199 23.6254V23.5355C17.83 23.6254 17.7403 23.7151 17.7403 23.8948C17.6504 23.9846 17.5606 24.0745 17.5606 24.2542C17.4708 24.3439 17.3809 24.4338 17.3809 24.6134C17.2911 24.7033 17.2012 24.7931 17.2012 24.9727C17.1115 25.0626 17.0216 25.1525 17.0216 25.3321C17.0216 25.3321 17.0216 25.4219 16.9317 25.3321C16.9317 25.3321 16.9317 25.2422 16.842 25.2422C16.842 25.1525 16.7521 25.1525 16.7521 25.0626C16.5724 24.883 16.4826 24.6134 16.3029 24.4338C16.2132 24.3439 16.1233 24.2542 16.1233 24.0745C16.1233 23.9846 16.0335 23.9846 16.0335 23.8948C16.0335 23.805 15.9436 23.805 15.9436 23.7151C15.9436 23.7151 15.9436 23.6254 15.8538 23.6254C15.8538 23.9846 15.8538 24.3439 15.8538 24.7033C15.8538 25.0626 15.8538 25.4219 15.8538 25.7813C15.8538 25.871 15.8538 25.9609 15.8538 26.0507V26.1406C15.8538 26.1406 15.8538 26.1406 15.764 26.1406H15.6741C15.4945 26.1406 15.3148 26.1406 15.1352 26.1406C15.0453 26.1406 14.9556 26.1406 14.8657 26.1406C14.8657 26.1406 14.8657 26.1406 14.7758 26.1406V26.0507C14.7758 25.871 14.7758 25.6914 14.7758 25.5118C14.7758 25.1525 14.7758 24.7931 14.7758 24.4338C14.7758 24.0745 14.7758 23.7151 14.7758 23.3558C14.7758 22.9966 14.7758 22.6372 14.7758 22.2779V22.188C14.7758 22.188 14.7758 22.188 14.7758 22.0982V22.0084C14.8657 22.0084 14.9556 22.0084 15.0453 22.0084C15.225 22.0084 15.4046 22.0084 15.5844 22.0084C15.6741 22.0084 15.764 22.0084 15.8538 22.0084C15.8538 22.0084 15.8538 22.0084 15.9436 22.0084C15.9436 22.0084 15.9436 22.0084 16.0335 22.0084L16.1233 22.0982C16.2132 22.188 16.2132 22.2779 16.2132 22.2779C16.3029 22.3676 16.3029 22.4575 16.3928 22.4575C16.5724 22.727 16.7521 22.9966 16.9317 23.3558C16.9317 23.4456 17.0216 23.5355 17.0216 23.5355C17.0216 23.4456 17.0216 23.3558 17.1115 23.266ZM11.003 4.761H14.3266C16.0335 4.761 16.842 5.56946 16.842 7.27624V10.9593C16.842 12.666 16.0335 13.4746 14.3266 13.4746H13.1589V18.505H11.0928V4.761H11.003ZM5.3437 4.761H10.0149V6.64742H7.40979V10.5101H9.8352V12.3966H7.40979V16.5287H10.0149V18.4152H5.3437V4.761ZM9.29622 25.5118C9.11656 25.6914 8.93689 25.7813 8.75724 25.871C8.66741 25.871 8.57758 25.9609 8.48775 25.9609C8.39791 25.9609 8.30808 26.0507 8.21826 26.0507C8.0386 26.1406 7.85893 26.1406 7.67928 26.1406C7.49962 26.1406 7.31995 26.1406 7.05047 26.1406C6.69114 26.0507 6.33183 25.9609 6.06233 25.6914C5.79285 25.4219 5.52335 25.1525 5.43353 24.7931C5.3437 24.6134 5.25387 24.4338 5.25387 24.2542C5.25387 24.1643 5.25387 24.0745 5.25387 23.9846C5.25387 23.8948 5.25387 23.805 5.25387 23.7151C5.25387 23.5355 5.3437 23.3558 5.43353 23.1762C5.43353 23.0863 5.52335 22.9966 5.52335 22.9067C5.61318 22.8168 5.61318 22.727 5.70301 22.6372C5.79285 22.4575 5.97251 22.3676 6.15216 22.2779C6.33183 22.188 6.51149 22.0982 6.69114 22.0084C6.87081 21.9186 7.05047 21.9185 7.23012 21.8287C7.31995 21.8287 7.40979 21.8287 7.49962 21.8287C7.58945 21.8287 7.58945 21.8287 7.67928 21.8287C7.7691 21.8287 7.7691 21.8287 7.85893 21.8287C8.0386 21.8287 8.21826 21.9186 8.39791 21.9186C8.57758 21.9186 8.75724 22.0982 8.93689 22.188C9.02673 22.2779 9.11656 22.2779 9.20639 22.3676C9.20639 22.3676 9.20639 22.3676 9.29622 22.3676C9.29622 22.3676 9.38605 22.3676 9.29622 22.4575L9.20639 22.5474C9.11656 22.727 8.93689 22.8168 8.84706 22.9966C8.75724 23.0863 8.75724 23.1762 8.66741 23.1762C8.48775 23.0863 8.39791 22.9966 8.21826 22.9067C8.0386 22.8168 7.85893 22.8168 7.67928 22.8168C7.31995 22.8168 6.96064 22.9966 6.78097 23.3558C6.60131 23.7151 6.51149 24.0745 6.69114 24.4338C6.78097 24.7931 7.05047 25.0626 7.40979 25.1525C7.58945 25.2422 7.7691 25.2422 7.94877 25.1525C7.85893 25.1525 7.94877 25.1525 8.0386 25.1525C8.0386 25.1525 8.12843 25.1525 8.12843 25.0626C8.12843 25.0626 8.21826 25.0626 8.21826 24.9727V24.883V24.7931C8.21826 24.7033 8.21826 24.7033 8.21826 24.6134C8.21826 24.5236 8.21826 24.5236 8.21826 24.4338V24.3439C8.21826 24.3439 8.21826 24.3439 8.12843 24.3439C7.94877 24.3439 7.7691 24.3439 7.58945 24.3439C7.49962 24.3439 7.49962 24.3439 7.40979 24.3439H7.31995V24.2542C7.31995 24.1643 7.31995 24.0745 7.31995 23.9846C7.31995 23.8948 7.31995 23.805 7.31995 23.7151C7.31995 23.6254 7.31995 23.6254 7.31995 23.5355V23.4456H7.40979C7.7691 23.4456 8.21826 23.4456 8.57758 23.4456C8.75724 23.4456 8.93689 23.4456 9.11656 23.4456H9.20639V23.5355C9.20639 23.6254 9.20639 23.6254 9.20639 23.7151C9.20639 23.805 9.20639 23.8948 9.20639 23.9846C9.20639 24.3439 9.20639 24.7033 9.20639 25.1525C9.29622 25.3321 9.29622 25.4219 9.29622 25.5118C9.29622 25.5118 9.29622 25.4219 9.29622 25.5118ZM9.74537 26.0507C9.8352 25.7813 10.0149 25.4219 10.1047 25.1525C10.1945 24.883 10.3742 24.5236 10.464 24.2542C10.5538 24.0745 10.5538 23.9846 10.6437 23.805C10.6437 23.7151 10.7335 23.6254 10.7335 23.5355C10.7335 23.4456 10.8233 23.3558 10.8233 23.266C10.9132 23.0863 10.9132 22.9966 11.003 22.8168C11.0928 22.6372 11.0928 22.5474 11.1826 22.3676C11.1826 22.2779 11.2725 22.188 11.2725 22.188C11.2725 22.0982 11.3623 22.0084 11.3623 21.9186C11.3623 21.9186 11.3623 21.9185 11.3623 21.8287C11.3623 21.8287 11.3623 21.8287 11.4521 21.8287H11.542C11.6318 21.8287 11.7216 21.8287 11.8115 21.8287C11.9911 21.8287 12.1708 21.8287 12.2606 21.8287H12.3505C12.3505 21.8287 12.3505 21.8287 12.4402 21.8287C12.4402 21.8287 12.4402 21.8287 12.4402 21.9186C12.4402 22.0084 12.5301 22.0982 12.5301 22.188C12.6199 22.3676 12.6199 22.4575 12.7098 22.6372C12.7996 22.8168 12.7996 22.9067 12.8894 23.0863C13.069 23.3558 13.1589 23.7151 13.2487 23.9846C13.3386 24.2542 13.5182 24.6134 13.6081 24.883C13.6978 25.0626 13.6978 25.1525 13.7877 25.3321C13.7877 25.4219 13.8776 25.5118 13.8776 25.6015C13.8776 25.6914 13.9674 25.7813 13.9674 25.871C13.9674 25.9609 14.0572 26.0507 14.0572 26.0507C14.0572 26.0507 14.0572 26.0507 13.9674 26.0507C13.6081 26.0507 13.2487 26.0507 12.8894 26.0507C12.8894 26.0507 12.8894 26.0507 12.7996 26.0507C12.7996 26.0507 12.7996 26.0507 12.7996 25.9609C12.7996 25.9609 12.7996 25.871 12.7098 25.871C12.7098 25.7813 12.6199 25.6914 12.6199 25.6015C12.6199 25.5118 12.5301 25.4219 12.5301 25.3321V25.2422H12.4402C12.3505 25.2422 12.3505 25.2422 12.2606 25.2422C11.9013 25.2422 11.542 25.2422 11.1826 25.2422C11.0928 25.2422 11.003 25.2422 10.9132 25.2422H10.8233V25.3321C10.8233 25.4219 10.8233 25.4219 10.7335 25.4219C10.6437 25.6015 10.5538 25.7813 10.5538 25.871C10.5538 25.871 10.5538 25.871 10.5538 25.9609C10.5538 25.9609 10.5538 25.9609 10.464 25.9609H10.3742C10.2844 25.9609 10.1945 25.9609 10.1047 25.9609C9.92503 25.9609 9.74537 25.9609 9.56571 25.9609C9.8352 26.0507 9.74537 26.0507 9.74537 26.0507ZM16.1233 33.0575L10.2843 31.0812H22.3215L16.1233 33.0575ZM23.3097 26.0507C23.3097 26.0507 23.2198 26.0507 23.3097 26.0507C22.8606 26.0507 22.5013 26.0507 22.1419 26.0507C21.7826 26.0507 21.4233 26.0507 20.9742 26.0507C20.7945 26.0507 20.6148 26.0507 20.4351 26.0507C20.3454 26.0507 20.2555 26.0507 20.1656 26.0507C20.1656 26.0507 20.1656 26.0507 20.0758 26.0507C20.0758 26.0507 20.0758 26.0507 19.986 26.0507C19.986 25.9609 19.986 25.9609 19.986 25.871C19.986 25.5118 19.986 25.1525 19.986 24.7033C19.986 24.3439 19.986 23.8948 19.986 23.5355C19.986 23.1762 19.986 22.727 19.986 22.3676C19.986 22.2779 19.986 22.188 19.986 22.0982C19.986 22.0084 19.986 22.0084 19.986 21.9186C19.986 21.9186 19.986 21.9185 19.986 21.8287V21.7388C20.1656 21.7388 20.3454 21.7388 20.525 21.7388C20.8843 21.7388 21.2436 21.7388 21.6927 21.7388C22.0521 21.7388 22.4114 21.7388 22.8606 21.7388C22.9504 21.7388 23.0402 21.7388 23.1301 21.7388H23.2198V21.8287V21.9186C23.2198 22.0982 23.2198 22.2779 23.2198 22.4575V22.5474V22.6372C23.2198 22.6372 23.2198 22.6372 23.1301 22.6372C23.0402 22.6372 22.9504 22.6372 22.8606 22.6372C22.6809 22.6372 22.5013 22.6372 22.3215 22.6372C21.9622 22.6372 21.603 22.6372 21.1538 22.6372C21.0639 22.6372 21.0639 22.6372 20.9742 22.6372C20.9742 22.6372 20.9742 22.6372 20.9742 22.727C20.9742 22.727 20.9742 22.727 20.9742 22.8168C20.9742 22.9067 20.9742 22.9966 20.9742 23.0863C20.9742 23.1762 20.9742 23.1762 20.9742 23.266V23.3558H21.0639H21.1538H21.2436C21.603 23.3558 21.9622 23.3558 22.4114 23.3558C22.5013 23.3558 22.591 23.3558 22.6809 23.3558C22.7707 23.3558 22.7707 23.3558 22.8606 23.3558C22.8606 23.3558 22.8606 23.3558 22.9504 23.3558C22.9504 23.3558 22.9504 23.4456 22.9504 23.5355V23.6254C22.9504 23.7151 22.9504 23.805 22.9504 23.8948C22.9504 23.9846 22.9504 24.0745 22.9504 24.1643H22.8606C22.7707 24.1643 22.7707 24.1643 22.6809 24.1643C22.5013 24.1643 22.3215 24.1643 22.1419 24.1643C21.9622 24.1643 21.7826 24.1643 21.603 24.1643C21.5131 24.1643 21.4233 24.1643 21.3334 24.1643C21.2436 24.1643 21.2436 24.1643 21.1538 24.1643H21.0639H20.9742V24.2542C20.9742 24.3439 20.9742 24.3439 20.9742 24.4338C20.9742 24.5236 20.9742 24.6134 20.9742 24.7033V24.7931V24.883H21.0639C21.1538 24.883 21.2436 24.883 21.3334 24.883C21.6927 24.883 22.0521 24.883 22.5013 24.883C22.6809 24.883 22.8606 24.883 23.0402 24.883H23.1301C23.1301 24.883 23.1301 24.883 23.1301 24.9727V25.0626C23.1301 25.1525 23.1301 25.2422 23.1301 25.3321C23.1301 25.4219 23.1301 25.5118 23.1301 25.6015C23.3097 25.871 23.3097 25.9609 23.3097 26.0507ZM21.0639 16.0796V7.1864C21.0639 5.47963 21.8725 4.67117 23.5792 4.67117H24.5673C26.2741 4.67117 27.0825 5.47963 27.0825 7.1864V9.97114H25.0165V7.27624C25.0165 6.73726 24.747 6.46776 24.208 6.46776H23.8486C23.3097 6.46776 23.0402 6.73726 23.0402 7.27624V15.9898C23.0402 16.5287 23.3097 16.7982 23.8486 16.7982H24.208C24.747 16.7982 25.0165 16.5287 25.0165 15.9898V12.8458H27.0825V16.0796C27.0825 17.7864 26.2741 18.5948 24.5673 18.5948H23.4894C21.8725 18.6846 21.0639 17.7864 21.0639 16.0796ZM27.2623 24.9727C27.2623 25.1525 27.1724 25.3321 27.0825 25.4219C26.9928 25.6015 26.9029 25.6914 26.7232 25.7813C26.4537 25.9609 26.0944 26.0507 25.7352 26.1406C25.3758 26.1406 25.0165 26.1406 24.6572 26.0507C24.2978 25.9609 24.0284 25.7813 23.7589 25.6015L23.669 25.5118C23.669 25.5118 23.669 25.5118 23.5792 25.5118C23.5792 25.5118 23.5792 25.5118 23.5792 25.4219C23.669 25.3321 23.669 25.3321 23.7589 25.2422C23.8486 25.0626 24.0284 24.9727 24.1182 24.883L24.208 24.7931C24.4774 24.9727 24.747 25.1525 25.1064 25.2422C25.286 25.2422 25.4656 25.3321 25.5554 25.3321C25.7352 25.3321 25.9148 25.2422 26.0046 25.1525C26.0046 25.0626 26.0046 24.9727 26.0046 24.883C25.9148 24.7931 25.9148 24.7931 25.8249 24.7033C25.6453 24.6134 25.4656 24.6134 25.3758 24.5236C25.0165 24.4338 24.747 24.3439 24.4774 24.2542C24.208 24.0745 23.9385 23.805 23.9385 23.5355C23.8486 23.1762 23.9385 22.8168 24.1182 22.5474C24.208 22.3676 24.3877 22.2779 24.4774 22.188C24.6572 22.0982 24.747 22.0084 24.9266 22.0084C25.1064 22.0084 25.286 21.9186 25.4656 21.9186C25.6453 21.9186 25.8249 21.9186 26.0046 21.9186C26.364 22.0084 26.6335 22.0982 26.9029 22.2779C26.9928 22.3676 27.0825 22.3676 27.0825 22.4575H27.1724C27.1724 22.4575 27.1724 22.4575 27.1724 22.5474L27.0825 22.6372C26.9928 22.727 26.9928 22.8168 26.9029 22.8168C26.8131 22.9067 26.8131 22.9966 26.7232 22.9966C26.6334 23.0863 26.6335 23.1762 26.5436 23.1762C26.2741 22.9966 25.9148 22.8168 25.6453 22.8168C25.4656 22.8168 25.286 22.8168 25.1961 22.8168C25.0165 22.9067 24.9266 23.0863 25.0165 23.266C25.0165 23.3558 25.1064 23.3558 25.1961 23.4456C25.286 23.4456 25.3758 23.5355 25.4656 23.5355C25.6453 23.6254 25.8249 23.6254 25.9148 23.6254C26.0944 23.7151 26.2741 23.7151 26.364 23.805C26.5436 23.8948 26.6334 23.9846 26.8131 24.0745C26.9029 24.1643 27.0825 24.3439 27.0825 24.4338C27.1724 24.6134 27.1724 24.7931 27.1724 24.883C27.2623 24.883 27.2623 24.883 27.2623 24.9727Z" fill="#DCDCDC"/>
<path d="M12.4403 24.4341C12.4403 24.4341 12.4403 24.3444 12.4403 24.4341C12.3504 24.2545 12.2606 24.0748 12.2606 23.8952C12.2606 23.8053 12.1707 23.7156 12.1707 23.6257C12.1707 23.5359 12.0809 23.446 12.0809 23.446C12.0809 23.3562 11.9911 23.2664 11.9911 23.1765C11.9012 23.3562 11.9012 23.5359 11.8114 23.6257C11.7216 23.8053 11.7216 23.985 11.6318 24.0748C11.6318 24.1647 11.5419 24.2545 11.5419 24.3444C11.8114 24.3444 12.0809 24.3444 12.2606 24.3444C12.3504 24.4341 12.4403 24.4341 12.4403 24.4341Z" fill="#DCDCDC"/>
<path d="M14.7759 10.8695V7.45594C14.7759 6.91696 14.5064 6.64746 13.9674 6.64746H13.069V11.6779H13.9674C14.5064 11.6779 14.7759 11.4085 14.7759 10.8695Z" fill="#DCDCDC"/>
</g>
<defs>
<clipPath id="clip0_46_136">
<rect width="32.4" height="36" fill="white" transform="translate(0.200012)"/>
</clipPath>
</defs>
</svg>

<svg xmlns="http://www.w3.org/2000/svg" width="33" height="36" fill="none" xmlns:v="https://vecta.io/nano"><g clip-path="url(#A)" fill="#dcdcdc"><path d="M28.879 0H3.547C1.481 0 .762.719.762 2.785v24.793.629c.09.449.09.898.449 1.347 0 .09.449.359.449.359.269.09.359.18.629.27l12.486 5.21c.629.27.898.449 1.348.359.449 0 .719-.09 1.348-.359l12.486-5.21c.27-.09.449-.18.629-.27l.449-.359c.449-.539.449-.898.449-1.347v-.629V2.785C31.754.719 30.945 0 28.879 0zM17.83 4.761h2.066v13.744H17.83V4.761zm-.718 18.505c.09-.09.09-.18.18-.269.09-.18.269-.359.359-.539.09-.09.09-.18.18-.27 0-.09.09-.09.09-.18h.09.09.719.18.09v.09.09.18.719.719.719.719.719.18H19h-.719-.18-.09-.09v-.18-.18-.719-.719-.719-.09c-.09.09-.18.18-.18.359-.09.09-.18.18-.18.359-.09.09-.18.18-.18.359-.09.09-.18.18-.18.359-.09.09-.18.18-.18.359 0 0 0 .09-.09 0 0 0 0-.09-.09-.09 0-.09-.09-.09-.09-.18-.18-.18-.269-.449-.449-.629-.09-.09-.18-.18-.18-.359 0-.09-.09-.09-.09-.18s-.09-.09-.09-.18c0 0 0-.09-.09-.09v1.078 1.078.269.09h-.09-.09-.539-.269-.09v-.09-.539-1.078-1.078-1.078-.09-.09-.09h.269.539.269.09.09l.09.09c.09.09.09.18.09.18.09.09.09.18.18.18l.539.898c0 .09.09.18.09.18 0-.09 0-.18.09-.27zM11.003 4.761h3.324c1.707 0 2.515.808 2.515 2.515v3.683c0 1.707-.808 2.515-2.515 2.515h-1.168v5.03h-2.066V4.761h-.09zm-5.659 0h4.671v1.886H7.41v3.863h2.425v1.886H7.41v4.132h2.605v1.886H5.344V4.761zm3.953 20.751c-.18.18-.359.27-.539.359-.09 0-.18.09-.269.09s-.18.09-.269.09c-.18.09-.359.09-.539.09H7.05c-.359-.09-.719-.18-.988-.449s-.539-.539-.629-.898c-.09-.18-.18-.359-.18-.539v-.27-.27c0-.18.09-.359.18-.539 0-.09.09-.18.09-.27.09-.09.09-.18.18-.27.09-.18.269-.27.449-.359l.539-.269c.18-.09.359-.09.539-.18h.27.18.18c.18 0 .359.09.539.09s.359.18.539.269c.09.09.18.09.27.18h.09s.09 0 0 .09l-.09.09c-.09.18-.27.269-.359.449-.09.09-.09.18-.18.18-.18-.09-.27-.18-.449-.27s-.359-.09-.539-.09c-.359 0-.719.18-.898.539s-.269.719-.09 1.078c.09.359.359.629.719.719a.57.57 0 0 0 .539 0c-.09 0 0 0 .09 0 0 0 .09 0 .09-.09 0 0 .09 0 .09-.09v-.09-.09-.18-.18-.09h-.09-.539-.18-.09v-.09-.27-.27-.18-.09h.09H8.58h.539.09v.09.18.27 1.168c.09.18.09.269.09.359 0 0 0-.09 0 0zm.449.539c.09-.269.27-.629.359-.898s.27-.629.359-.898c.09-.18.09-.27.18-.449 0-.09.09-.18.09-.27s.09-.18.09-.27c.09-.18.09-.269.18-.449s.09-.269.18-.449c0-.09.09-.18.09-.18 0-.09.09-.18.09-.269v-.09h.09.09.27.449.09.09v.09c0 .09.09.18.09.269.09.18.09.27.18.449s.09.27.18.449c.18.269.269.629.359.898s.27.629.359.898c.09.18.09.27.18.449 0 .09.09.18.09.269s.09.18.09.269.09.18.09.18h-.09-1.078-.09v-.09s0-.09-.09-.09c0-.09-.09-.18-.09-.269s-.09-.18-.09-.269v-.09h-.09-.18-1.078-.269-.09v.09c0 .09 0 .09-.09.09-.09.18-.18.359-.18.449v.09h-.09-.09-.27-.539c.269.09.18.09.18.09zm6.378 7.007l-5.839-1.976h12.037l-6.198 1.976zm7.186-7.007s-.09 0 0 0h-1.168-1.168-.539-.269-.09-.09v-.18-1.168-1.168-1.168-.269-.18-.09-.09h.539 1.168 1.168.269.09v.09.09.539.09.09h-.09-.269-.539-1.168-.18v.09.09.27.18.09h.09.09.09 1.168.27.18.09v.18.09.269.27h-.09-.18-.539-.539-.27-.18-.09-.09v.09.18.269.09.09h.09.27 1.168.539.09v.09.09.27.269c.18.269.18.359.18.449zm-2.246-9.971V7.186c0-1.707.809-2.515 2.515-2.515h.988c1.707 0 2.515.808 2.515 2.515v2.785h-2.066V7.276c0-.539-.27-.808-.809-.808h-.359c-.539 0-.808.269-.808.808v8.714c0 .539.27.808.808.808h.359c.539 0 .809-.27.809-.808v-3.144h2.066v3.234c0 1.707-.808 2.515-2.515 2.515h-1.078c-1.617.09-2.425-.808-2.425-2.515zm6.198 8.893c0 .18-.09.359-.18.449a.7.7 0 0 1-.359.359c-.269.18-.629.269-.988.359-.359 0-.719 0-1.078-.09s-.629-.269-.898-.449l-.09-.09h-.09v-.09l.18-.18c.09-.18.27-.27.359-.359l.09-.09c.269.18.539.359.898.449.18 0 .359.09.449.09.18 0 .359-.09.449-.18v-.27l-.18-.18c-.18-.09-.359-.09-.449-.18l-.898-.269c-.269-.18-.539-.449-.539-.719-.09-.359 0-.719.18-.988.09-.18.269-.27.359-.359.18-.09.27-.18.449-.18s.359-.09.539-.09h.539c.359.09.629.18.898.359.09.09.18.09.18.18h.09v.09l-.09.09c-.09.09-.09.18-.18.18-.09.09-.09.18-.18.18-.09.09-.09.18-.18.18-.27-.18-.629-.359-.898-.359h-.449c-.18.09-.27.27-.18.449 0 .09.09.09.18.18.09 0 .18.09.269.09.18.09.359.09.449.09.18.09.359.09.449.18.18.09.269.18.449.27.09.09.269.269.269.359.09.18.09.359.09.449.09 0 .09 0 .09.09zm-14.822-.539s0-.09 0 0c-.09-.18-.18-.359-.18-.539 0-.09-.09-.18-.09-.27s-.09-.18-.09-.18c0-.09-.09-.18-.09-.27-.09.18-.09.359-.18.449-.09.18-.09.359-.18.449 0 .09-.09.18-.09.27h.719c.09.09.18.09.18.09zm2.336-13.564V7.456c0-.539-.27-.808-.809-.808h-.898v5.03h.898c.539 0 .809-.269.809-.808z"/></g><defs><clipPath id="A"><path fill="#fff" transform="translate(.2)" d="M0 0h32.4v36H0z"/></clipPath></defs></svg>
